src/resources/icons/cursor-pointer.svg

<svg width="24" height="24" viewBox="0 0 24 24" fill="none" xmlns="http://www.w3.org/2000/svg">
<g filter="url(#filter0_d_7_280274)">
<path d="M8.26999 16.2799C7.98999 15.9199 7.63999 15.1899 7.02999 14.2799C6.67999 13.7799 5.81999 12.8299 5.55999 12.3399C5.37257 12.0422 5.31818 11.6796 5.40999 11.3399C5.56695 10.6941 6.17956 10.2657 6.83999 10.3399C7.3508 10.4425 7.82022 10.6929 8.18999 11.0599C8.44817 11.3031 8.68566 11.5673 8.89999 11.8499C9.05999 12.0499 9.09999 12.1299 9.27999 12.3599C9.45999 12.5899 9.57999 12.8199 9.48999 12.4799C9.41999 11.9799 9.29999 11.1399 9.12999 10.3899C8.99999 9.81993 8.96999 9.72993 8.84999 9.29993C8.72999 8.86993 8.65999 8.50993 8.52999 8.01993C8.41116 7.5385 8.3177 7.05116 8.24999 6.55993C8.12395 5.93163 8.21565 5.27914 8.50999 4.70993C8.85939 4.3813 9.37192 4.29456 9.80999 4.48993C10.2506 4.81526 10.5791 5.26958 10.75 5.78993C11.0121 6.43032 11.187 7.10299 11.27 7.78993C11.43 8.78993 11.74 10.2499 11.75 10.5499C11.75 10.1799 11.68 9.39993 11.75 9.04993C11.8193 8.68505 12.073 8.38224 12.42 8.24993C12.7178 8.15855 13.0328 8.13801 13.34 8.18993C13.65 8.25474 13.9247 8.43307 14.11 8.68993C14.3417 9.27332 14.4703 9.89253 14.49 10.5199C14.5168 9.97051 14.6108 9.42646 14.77 8.89993C14.9371 8.66448 15.1811 8.49472 15.46 8.41993C15.7906 8.35948 16.1294 8.35948 16.46 8.41993C16.7311 8.51056 16.9682 8.68144 17.14 8.90993C17.3518 9.44027 17.48 10.0003 17.52 10.5699C17.52 10.7099 17.59 10.1799 17.81 9.82993C17.9243 9.49053 18.211 9.2379 18.5621 9.1672C18.9132 9.09651 19.2754 9.21849 19.5121 9.4872C19.7489 9.75591 19.8243 10.1305 19.71 10.4699C19.71 11.1199 19.71 11.0899 19.71 11.5299C19.71 11.9699 19.71 12.3599 19.71 12.7299C19.6736 13.3151 19.5933 13.8967 19.47 14.4699C19.296 14.977 19.0537 15.4581 18.75 15.8999C18.2644 16.4399 17.8632 17.0501 17.56 17.7099C17.4848 18.0377 17.4512 18.3737 17.46 18.7099C17.459 19.0206 17.4993 19.3299 17.58 19.6299C17.1711 19.6732 16.7589 19.6732 16.35 19.6299C15.96 19.5699 15.48 18.7899 15.35 18.5499C15.2857 18.4211 15.154 18.3396 15.01 18.3396C14.866 18.3396 14.7343 18.4211 14.67 18.5499C14.45 18.9299 13.96 19.6199 13.62 19.6599C12.95 19.7399 11.57 19.6599 10.48 19.6599C10.48 19.6599 10.66 18.6599 10.25 18.2999C9.83999 17.9399 9.41999 17.5199 9.10999 17.2399L8.26999 16.2799Z" fill="white"/>
<path fill-rule="evenodd" clip-rule="evenodd" d="M8.26999 16.2799C7.98999 15.9199 7.63999 15.1899 7.02999 14.2799C6.67999 13.7799 5.81999 12.8299 5.55999 12.3399C5.37257 12.0422 5.31818 11.6796 5.40999 11.3399C5.56695 10.6941 6.17956 10.2657 6.83999 10.3399C7.3508 10.4425 7.82022 10.6929 8.18999 11.0599C8.44817 11.3031 8.68566 11.5673 8.89999 11.8499C9.05999 12.0499 9.09999 12.1299 9.27999 12.3599C9.45999 12.5899 9.57999 12.8199 9.48999 12.4799C9.41999 11.9799 9.29999 11.1399 9.12999 10.3899C8.99999 9.81993 8.96999 9.72993 8.84999 9.29993C8.72999 8.86993 8.65999 8.50993 8.52999 8.01993C8.41116 7.5385 8.3177 7.05116 8.24999 6.55993C8.12395 5.93163 8.21565 5.27914 8.50999 4.70993C8.85939 4.3813 9.37192 4.29456 9.80999 4.48993C10.2506 4.81526 10.5791 5.26958 10.75 5.78993C11.0121 6.43032 11.187 7.10299 11.27 7.78993C11.43 8.78993 11.74 10.2499 11.75 10.5499C11.75 10.1799 11.68 9.39993 11.75 9.04993C11.8193 8.68505 12.073 8.38224 12.42 8.24993C12.7178 8.15855 13.0328 8.13801 13.34 8.18993C13.65 8.25474 13.9247 8.43307 14.11 8.68993C14.3417 9.27332 14.4703 9.89253 14.49 10.5199C14.5168 9.97051 14.6108 9.42646 14.77 8.89993C14.9371 8.66448 15.1811 8.49472 15.46 8.41993C15.7906 8.35948 16.1294 8.35948 16.46 8.41993C16.7311 8.51056 16.9682 8.68144 17.14 8.90993C17.3518 9.44027 17.48 10.0003 17.52 10.5699C17.52 10.7099 17.59 10.1799 17.81 9.82993C17.9243 9.49053 18.211 9.2379 18.5621 9.1672C18.9132 9.09651 19.2754 9.21849 19.5121 9.4872C19.7489 9.75591 19.8243 10.1305 19.71 10.4699C19.71 11.1199 19.71 11.0899 19.71 11.5299C19.71 11.9699 19.71 12.3599 19.71 12.7299C19.6736 13.3151 19.5933 13.8967 19.47 14.4699C19.296 14.977 19.0537 15.4581 18.75 15.8999C18.2644 16.4399 17.8632 17.0501 17.56 17.7099C17.4848 18.0377 17.4512 18.3737 17.46 18.7099C17.459 19.0206 17.4993 19.3299 17.58 19.6299C17.1711 19.6731 16.7589 19.6731 16.35 19.6299C15.96 19.5699 15.48 18.7899 15.35 18.5499C15.2857 18.4211 15.154 18.3396 15.01 18.3396C14.866 18.3396 14.7343 18.4211 14.67 18.5499C14.45 18.9299 13.96 19.6199 13.62 19.6599C12.95 19.7399 11.57 19.6599 10.48 19.6599C10.48 19.6599 10.66 18.6599 10.25 18.2999C9.83999 17.9399 9.41999 17.5199 9.10999 17.2399L8.26999 16.2799Z" stroke="#121958" stroke-width="0.75" stroke-linecap="round" stroke-linejoin="round"/>
<path d="M16.75 16.8259V13.3741C16.75 13.1675 16.5821 13 16.375 13C16.1679 13 16 13.1675 16 13.3741V16.8259C16 17.0325 16.1679 17.2 16.375 17.2C16.5821 17.2 16.75 17.0325 16.75 16.8259Z" fill="#121958"/>
<path d="M14.77 16.8246L14.75 13.3711C14.7488 13.1649 14.5799 12.9988 14.3728 13C14.1657 13.0012 13.9988 13.1693 14 13.3754L14.02 16.8289C14.0212 17.035 14.1901 17.2012 14.3972 17.2C14.6043 17.1988 14.7712 17.0307 14.77 16.8246Z" fill="#121958"/>
<path d="M12 13.379L12.02 16.8254C12.0212 17.0335 12.1901 17.2012 12.3972 17.2C12.6043 17.1988 12.7712 17.0291 12.77 16.821L12.75 13.3746C12.7488 13.1665 12.5799 12.9988 12.3728 13C12.1657 13.0012 11.9988 13.1709 12 13.379Z" fill="#121958"/>
</g>
<defs>
<filter id="filter0_d_7_280274" x="4.19133" y="4.01172" width="16.7461" height="17.8588" filterUnits="userSpaceOnUse" color-interpolation-filters="sRGB">
<feFlood flood-opacity="0" result="BackgroundImageFix"/>
<feColorMatrix in="SourceAlpha" type="matrix" values="0 0 0 0 0 0 0 0 0 0 0 0 0 0 0 0 0 0 127 0" result="hardAlpha"/>
<feOffset dy="1"/>
<feGaussianBlur stdDeviation="0.4"/>
<feColorMatrix type="matrix" values="0 0 0 0 0 0 0 0 0 0 0 0 0 0 0 0 0 0 0.5 0"/>
<feBlend mode="normal" in2="BackgroundImageFix" result="effect1_dropShadow_7_280274"/>
<feBlend mode="normal" in="SourceGraphic" in2="effect1_dropShadow_7_280274" result="shape"/>
</filter>
</defs>
</svg>

<svg xmlns="http://www.w3.org/2000/svg" width="24" height="24" fill="none"><g filter="url(#a)"><path d="M8.27 16.28c-.28-.36-.63-1.09-1.24-2-.35-.5-1.21-1.45-1.47-1.94a1.26 1.26 0 0 1-.15-1 1.32 1.32 0 0 1 1.43-1c.51.103.98.353 1.35.72.258.243.496.507.71.79.16.2.2.28.38.51.18.23.3.46.21.12-.07-.5-.19-1.34-.36-2.09-.13-.57-.16-.66-.28-1.09-.12-.43-.19-.79-.32-1.28a14.163 14.163 0 0 1-.28-1.46 2.82 2.82 0 0 1 .26-1.85 1.19 1.19 0 0 1 1.3-.22c.44.325.77.78.94 1.3.262.64.437 1.313.52 2 .16 1 .47 2.46.48 2.76 0-.37-.07-1.15 0-1.5a1.07 1.07 0 0 1 .67-.8 2 2 0 0 1 .92-.06c.31.065.585.243.77.5.232.583.36 1.203.38 1.83a6.73 6.73 0 0 1 .28-1.62 1.24 1.24 0 0 1 .69-.48 2.8 2.8 0 0 1 1 0c.271.09.508.261.68.49.212.53.34 1.09.38 1.66 0 .14.07-.39.29-.74a1.002 1.002 0 1 1 1.9.64v2.26a11.74 11.74 0 0 1-.24 1.74 5.911 5.911 0 0 1-.72 1.43 7.208 7.208 0 0 0-1.19 1.81 4.004 4.004 0 0 0-.1 1c-.001.31.04.62.12.92a5.84 5.84 0 0 1-1.23 0c-.39-.06-.87-.84-1-1.08a.38.38 0 0 0-.68 0c-.22.38-.71 1.07-1.05 1.11-.67.08-2.05 0-3.14 0 0 0 .18-1-.23-1.36-.41-.36-.83-.78-1.14-1.06l-.84-.96Z"/><path d="M8.27 16.28c-.28-.36-.63-1.09-1.24-2-.35-.5-1.21-1.45-1.47-1.94a1.26 1.26 0 0 1-.15-1 1.32 1.32 0 0 1 1.43-1c.51.103.98.353 1.35.72.258.243.496.507.71.79.16.2.2.28.38.51.18.23.3.46.21.12-.07-.5-.19-1.34-.36-2.09-.13-.57-.16-.66-.28-1.09-.12-.43-.19-.79-.32-1.28a14.163 14.163 0 0 1-.28-1.46 2.82 2.82 0 0 1 .26-1.85 1.19 1.19 0 0 1 1.3-.22c.44.325.77.78.94 1.3.262.64.437 1.313.52 2 .16 1 .47 2.46.48 2.76 0-.37-.07-1.15 0-1.5a1.07 1.07 0 0 1 .67-.8 2 2 0 0 1 .92-.06c.31.065.585.243.77.5.232.583.36 1.203.38 1.83a6.73 6.73 0 0 1 .28-1.62 1.24 1.24 0 0 1 .69-.48 2.8 2.8 0 0 1 1 0c.271.09.508.261.68.49.212.53.34 1.09.38 1.66 0 .14.07-.39.29-.74a1.002 1.002 0 1 1 1.9.64v2.26a11.74 11.74 0 0 1-.24 1.74 5.911 5.911 0 0 1-.72 1.43 7.208 7.208 0 0 0-1.19 1.81 4.004 4.004 0 0 0-.1 1c-.001.31.04.62.12.92a5.853 5.853 0 0 1-1.23 0c-.39-.06-.87-.84-1-1.08a.38.38 0 0 0-.68 0c-.22.38-.71 1.07-1.05 1.11-.67.08-2.05 0-3.14 0 0 0 .18-1-.23-1.36-.41-.36-.83-.78-1.14-1.06l-.84-.96Z" clip-rule="evenodd"/><path d="M16.75 16.826v-3.452a.375.375 0 0 0-.75 0v3.452a.375.375 0 0 0 .75 0Zm-1.98-.001-.02-3.454a.374.374 0 0 0-.75.004l.02 3.454a.374.374 0 0 0 .75-.004ZM12 13.379l.02 3.446a.376.376 0 1 0 .75-.004l-.02-3.446a.376.376 0 1 0-.75.004Z"/></g><defs><filter id="a" width="16.746" height="17.859" x="4.191" y="4.012" color-interpolation-filters="sRGB" filterUnits="userSpaceOnUse"><feFlood flood-opacity="0" result="BackgroundImageFix"/><feColorMatrix in="SourceAlpha" result="hardAlpha" values="0 0 0 0 0 0 0 0 0 0 0 0 0 0 0 0 0 0 127 0"/><feOffset dy="1"/><feGaussianBlur stdDeviation=".4"/><feColorMatrix values="0 0 0 0 0 0 0 0 0 0 0 0 0 0 0 0 0 0 0.5 0"/><feBlend in2="BackgroundImageFix" result="effect1_dropShadow_7_280274"/><feBlend in="SourceGraphic" in2="effect1_dropShadow_7_280274" result="shape"/></filter></defs></svg>
